dist/svg/check-in-duo-tone-2.svg

<svg xmlns="http://www.w3.org/2000/svg" viewBox="0 0 24 24"><path d="M3.805 3.28c-.384.091-.633.519-.528.908.023.086.11.236.192.334.083.098 1.865 2.107 3.961 4.465l3.81 4.288v5.965l-1.63.001c-.897 0-1.701.017-1.787.037a.739.739 0 0 0-.348 1.246.84.84 0 0 0 .306.191c.224.063 8.214.063 8.438 0a.84.84 0 0 0 .306-.191.739.739 0 0 0-.348-1.246c-.086-.02-.89-.037-1.787-.037l-1.63-.001v-5.965l3.906-4.394c2.148-2.417 3.943-4.454 3.989-4.526.113-.179.114-.523.002-.715a1 1 0 0 0-.252-.259l-.172-.121-8.146-.006c-4.481-.004-8.208.008-8.282.026M18.28 4.778c0 .037-6.246 7.042-6.28 7.042S5.72 4.815 5.72 4.778c0-.01 2.826-.018 6.28-.018s6.28.008 6.28.018"/></svg>

<svg fill="none" xmlns="http://www.w3.org/2000/svg" viewBox="0 0 24 24"><path d="M3.805 3.280 C 3.421 3.371,3.172 3.799,3.277 4.188 C 3.300 4.274,3.387 4.424,3.469 4.522 C 3.552 4.620,5.334 6.629,7.430 8.987 L 11.240 13.275 11.240 16.257 L 11.240 19.240 9.610 19.241 C 8.713 19.241,7.909 19.258,7.823 19.278 C 7.258 19.409,7.062 20.111,7.475 20.524 C 7.556 20.605,7.693 20.691,7.781 20.715 C 8.005 20.778,15.995 20.778,16.219 20.715 C 16.307 20.691,16.444 20.605,16.525 20.524 C 16.938 20.111,16.742 19.409,16.177 19.278 C 16.091 19.258,15.287 19.241,14.390 19.241 L 12.760 19.240 12.760 16.258 L 12.760 13.275 16.666 8.881 C 18.814 6.464,20.609 4.427,20.655 4.355 C 20.768 4.176,20.769 3.832,20.657 3.640 C 20.613 3.564,20.499 3.447,20.405 3.381 L 20.233 3.260 12.087 3.254 C 7.606 3.250,3.879 3.262,3.805 3.280 M18.280 4.778 C 18.280 4.815,12.034 11.820,12.000 11.820 C 11.966 11.820,5.720 4.815,5.720 4.778 C 5.720 4.768,8.546 4.760,12.000 4.760 C 15.454 4.760,18.280 4.768,18.280 4.778 " stroke="none" fill-rule="evenodd"/></svg>
